icons/quill-pen-line.svg

<svg width="24" height="24" fill="none" xmlns="http://www.w3.org/2000/svg"><g clip-path="url(#a)"><path d="M6.94 14.036c-.233.624-.43 1.2-.606 1.783.96-.697 2.101-1.139 3.418-1.304 2.513-.314 4.746-1.973 5.876-4.058l-1.456-1.455 1.413-1.415 1-1.001c.43-.43.915-1.224 1.428-2.368-5.593.867-9.018 4.292-11.074 9.818h.001ZM17 9.001 18 10c-1 3-4 6-8 6.5-2.669.334-4.336 2.167-5.002 5.5H3C4 16 6 2 21 2c-1 2.997-1.998 4.996-2.997 5.997L17 9.001Z" /></g><defs><clipPath id="a"><path fill="#fff" d="M0 0h24v24H0z"/></clipPath></defs></svg>

<svg xmlns="http://www.w3.org/2000/svg" width="24" height="24" fill="none"><g clip-path="url(#a)"><g><path fill="#121212" d="M6.94 14.036C6.707 14.66 6.51 15.236 6.334 15.819C7.294 15.122 8.435 14.68 9.752 14.515C12.265 14.201 14.498 12.542 15.628 10.457L14.172 9.002L15.585 7.587L16.585 6.586C17.015 6.156 17.5 5.362 18.013 4.218C12.42 5.085 8.995 8.51 6.939 14.036H6.94ZM17 9.001L18 10C17 13 14 16 10 16.5C7.331 16.834 5.664 18.667 4.998 22H3C4 16 6 2 21 2C20 4.997 19.002 6.996 18.003 7.997L17 9.001Z"/></g></g><defs><clipPath id="a"><rect width="24" height="24" fill="white"/></clipPath></defs></svg>
